X:5
T: Vidróczki
O: Bekölce (Heves), Vitéz József (69), 1953.08
M: 3/4
Q: "Parlandon" 1/4=60
L: 1/4
K:C
A/A/A/B/c/c/ | B A>z | 
A/d/c/B/A/B/ | G G>z | 
G/E/G/A/A/E/ | D C> z | 
A/A/E/C/D/E/ | A, A,>z | 

